svgs/sharp-light/person-circle-plus.svg

<svg xmlns="http://www.w3.org/2000/svg" viewBox="0 0 576 512"><!--! Font Awesome Pro 6.6.0 by @fontawesome - https://fontawesome.com License - https://fontawesome.com/license (Commercial License) Copyright 2024 Fonticons, Inc. --><path d="M160 80a24 24 0 1 0 0-48 24 24 0 1 0 0 48zm0-80a56 56 0 1 1 0 112A56 56 0 1 1 160 0zM99.3 128l9.6 0 102.2 0 9.6 0 4.5 8.5 66.7 124.9c-7.5 9.8-14 20.5-19.3 31.8l-48.6-91L224 496l0 16-32 0 0-16 0-144-64 0 0 144 0 16-32 0 0-16 0-293.9L46.1 295.5l-7.5 14.1L10.3 294.6l7.5-14.1 76.9-144 4.5-8.5zM128 320l64 0 0-160-64 0 0 160zm416 48a112 112 0 1 0 -224 0 112 112 0 1 0 224 0zm-256 0a144 144 0 1 1 288 0 144 144 0 1 1 -288 0zm160-64l0 48 48 0 16 0 0 32-16 0-48 0 0 48 0 16-32 0 0-16 0-48-48 0-16 0 0-32 16 0 48 0 0-48 0-16 32 0 0 16z"/></svg>

<svg xmlns="http://www.w3.org/2000/svg" viewBox="0 0 576 512"><!--! Font Awesome Pro 6.4.0 by @fontawesome - https://fontawesome.com License - https://fontawesome.com/license (Commercial License) Copyright 2023 Fonticons, Inc. --><path d="M160 80a24 24 0 1 0 0-48 24 24 0 1 0 0 48zm0-80a56 56 0 1 1 0 112A56 56 0 1 1 160 0zM99.3 128h9.6H211.1h9.6l4.5 8.5 66.7 124.9c-7.5 9.8-14 20.5-19.3 31.8l-48.6-91V496v16H192V496 352H128V496v16H96V496 202.1L46.1 295.5l-7.5 14.1L10.3 294.6l7.5-14.1 76.9-144 4.5-8.5zM128 320h64V160H128V320zm416 48a112 112 0 1 0 -224 0 112 112 0 1 0 224 0zm-256 0a144 144 0 1 1 288 0 144 144 0 1 1 -288 0zm160-64v48h48 16v32H496 448v48 16H416V432 384H368 352V352h16 48V304 288h32v16z"/></svg>
